X:1
T:Title
%%score { ( 1 3 5 ) | ( 2 4 ) }
L:1/8
Q:1/4=100
M:4/4
K:Db
V:1 treble nm="Grand Piano"
V:3 treble 
V:5 treble 
V:2 bass 
V:4 bass 
V:1
 [A,DF]2 [=A,EF]2 [B,=DF]2 [CEG]2 | A4 G4 | [A,CE]4 [=G,DE]2 [A,E]2 | [A,DF]4[K:bass] [G,CE]4 | %4
w: J.~J.~Jelley * * *||||
 [F,B,D]2 [F,B,=D]2 [B,DE]2 [B,_F]2 | C4- [_A,CG]4 | [A,A]2 z2 z4[K:bass] |[M:3/4] [F,D]6 | %8
w: ||||
[M:1/4][K:treble] [DFA]2 |[M:4/4] B2- [GB-][FB] [EA]2 [Fd]2 | d2- [Ad-][Gd-] [Fd]2 d2 | %11
w: |||
 [Fd]2 [Ec]2 [EB]2 [E=A]2 |[M:3/4] [EA]6 |[M:1/4] [GA]2 |[M:4/4] d2- [Ad-][Gd-] [A,Fd]2 [EFA]2 | %15
w: ||||
 B6 z2 | [Fd]2 [Ad]2 [=Gd]2 [_Ge]2 | [Fd]6 z2 |] %18
w: |||
V:2
 D,2 C,2 B,,2 A,,G,, | z2 _C2 z2 =A,2 | A,,4 B,,2 C,2 | D,4 A,,4 | B,,2 B,,A,, G,,2 G,2 | F,4 E,4 | %6
 F,2 G,=G, A,2 A,,2 |[M:3/4] D,6 |[M:1/4] D,2 |[M:4/4] B,,2 [E,E][D,=G,] [C,A,]2 [_C,A,]2 | %10
 [B,,G,]2 F,[E,G,] [D,B,]2 [G,,B,G]2 | [A,,A,]2 [A,,A,]2 [B,,=G,]2 [_C,_G,]2 |[M:3/4] [C,G,]6 | %13
[M:1/4] [C,A,]2 |[M:4/4] z2 .F,2 z4 | B,,2 D,C, [B,,B,]2 [=A,,=G,]2 | %16
 [A,,A,]2 [A,,F,]2 [B,,B,]2 [C,A,]2 | [D,A,]6 z2 |] %18
V:3
 x8 | D2 z2 B,2 z2 | x8 | x4[K:bass] x4 | x8 | [=A,F]4 z4 | D2- [B,DE]2 [DF]2[K:bass] [G,CE]2 | %7
[M:3/4] x6 |[M:1/4][K:treble] x2 |[M:4/4] [DF]2 z2 z4 | G2 z2 z4 | x8 |[M:3/4] x6 |[M:1/4] x2 | %14
[M:4/4] F2 z2 z4 | [DF]2 FE D2 [_Fd]2 | x8 | x8 |] %18
V:4
 x8 | F,,4 G,,4 | x8 | x8 | x8 | x8 | x8 |[M:3/4] x6 |[M:1/4] x2 |[M:4/4] x8 | x8 | x8 | %12
[M:3/4] x6 |[M:1/4] x2 |[M:4/4] [D,A,]2 A,-[E,A,] D,2 C,2 | x8 | x8 | x8 |] %18
V:5
 x8 | x8 | x8 | x4[K:bass] x4 | x8 | x8 | x6[K:bass] x2 |[M:3/4] x6 |[M:1/4][K:treble] x2 | %9
[M:4/4] x8 | x8 | x8 |[M:3/4] x6 |[M:1/4] x2 |[M:4/4] x8 | z2 B,2 z4 | x8 | x8 |] %18

